X: 1
T: Hon. Mrs. Campbell (of Lochnell)
C: R.Mackintosh
R: reel
B: RSCDS 17-7(I)
Z: 1997 by John Chambers <jc:trillian.mit.edu>
M: 2/2
L: 1/8
K: C
G \
| "C"c2Gc ECGE | c2ec "G7"dDDB | "C"c2"F"AF "C"EG"Am"CE | "Dm"FD"G7"G,G "C"ECCG |
| "C"c2Gc ECGE | c2ec "G7"dDDB | "F"c2Ac "C"GcEc | "G7"defd "C"ec c ||
|| G \
| "C"ECEG "F"AFAc | "Am"ECFE "G7"DG,G,F | "C"ECEG "F"AFAc | "G7"BdGf "C"eccG |
| "C"ECEG "F"AFAc | "Am"ECFE "G7"DG,G,F | "C"EG"Dm"FA "Em"GB"F"Ac | "G7"Bagf "C"ec c |]
